X: 39199
T: Swiss Boy, The
R: barndance
M: 4/4
K: Dmajor
|:FG|A2 FG A2 FG|A2 fe d2 FA|G2 ed cAGc|dAeA f2 FG|
A2 FG A2 FG|A2 fe d2 FA|G2 ed cABc|d2 d2 d2:|
|:FA|G2 GF G2 AG|FAde f2 FA|G2 GF G2 AG|FAde f2 FG|
A2 FG A2 FG|A2 fe d2 FA|G2 ed cABc|d2 d2 d2:|

